src/assets/icons/profile.svg

<svg width="24" height="24" viewBox="0 0 24 24" fill="none" xmlns="http://www.w3.org/2000/svg">
<path fill-rule="evenodd" clip-rule="evenodd" d="M7.88542 22.125H4.75C3.71613 22.125 2.875 21.2839 2.875 20.25V3.75C2.875 2.71613 3.71613 1.875 4.75 1.875H16.276C17.3099 1.875 18.151 2.71613 18.151 3.75V9.51562C18.151 10.0334 18.5708 10.4531 19.0885 10.4531C19.6063 10.4531 20.026 10.0334 20.026 9.51562V3.75C20.026 1.68225 18.3438 0 16.276 0H4.75C2.68225 0 1 1.68225 1 3.75V20.25C1 22.3177 2.68225 24 4.75 24H7.88542C8.4032 24 8.82292 23.5803 8.82292 23.0625C8.82292 22.5447 8.4032 22.125 7.88542 22.125ZM16.2761 10.3125C16.2761 9.79472 15.8564 9.375 15.3386 9.375H5.68237C5.16459 9.375 4.74487 9.79472 4.74487 10.3125C4.74487 10.8303 5.16459 11.25 5.68237 11.25H15.3386C15.8564 11.25 16.2761 10.8303 16.2761 10.3125ZM5.68237 13.125C5.16459 13.125 4.74487 13.5447 4.74487 14.0625C4.74487 14.5803 5.16459 15 5.68237 15H11.547C12.0647 15 12.4845 14.5803 12.4845 14.0625C12.4845 13.5447 12.0647 13.125 11.547 13.125H5.68237ZM17.7099 13.5729C18.8058 12.477 20.5901 12.4771 21.6867 13.5737C22.7833 14.6704 22.7833 16.4546 21.6867 17.5512L16.5505 22.6778C16.4361 22.792 16.2942 22.8746 16.1385 22.9177L12.3545 23.9659C12.1927 24.0107 12.0218 24.0113 11.8598 23.9675C11.6977 23.9238 11.5504 23.8373 11.4331 23.7171C11.3159 23.597 11.2331 23.4476 11.1933 23.2845C11.1536 23.1214 11.1584 22.9506 11.2072 22.79L12.3281 19.0997C12.373 18.952 12.4536 18.8176 12.5629 18.7086L17.7099 13.5729ZM13.4967 21.704L15.4004 21.1766L18.8528 17.7307L17.5267 16.4046L14.0538 19.8698L13.4967 21.704ZM20.1799 16.4061L20.3616 16.2248C20.7264 15.8599 20.7264 15.2651 20.3609 14.8996C19.9954 14.5341 19.4006 14.5341 19.0351 14.8996L18.8541 15.0802L20.1799 16.4061ZM5.68237 5.625H15.3386C15.8564 5.625 16.2761 6.04472 16.2761 6.5625C16.2761 7.08028 15.8564 7.5 15.3386 7.5H5.68237C5.16459 7.5 4.74487 7.08028 4.74487 6.5625C4.74487 6.04472 5.16459 5.625 5.68237 5.625Z" fill="#3C4158"/>
</svg>

<svg xmlns="http://www.w3.org/2000/svg" width="24" height="24" fill="none"><path fill="#3C4158" fill-rule="evenodd" d="M7.885 22.125H4.75a1.877 1.877 0 0 1-1.875-1.875V3.75c0-1.034.841-1.875 1.875-1.875h11.526c1.034 0 1.875.841 1.875 1.875v5.766a.938.938 0 0 0 1.875 0V3.75A3.754 3.754 0 0 0 16.276 0H4.75A3.754 3.754 0 0 0 1 3.75v16.5A3.754 3.754 0 0 0 4.75 24h3.135a.937.937 0 1 0 0-1.875Zm8.391-11.813a.937.937 0 0 0-.937-.937H5.682a.937.937 0 1 0 0 1.875h9.657c.517 0 .937-.42.937-.938ZM5.682 13.126a.937.937 0 1 0 0 1.875h5.865a.938.938 0 0 0 0-1.875H5.682Zm12.028.448a2.815 2.815 0 0 1 3.977 0 2.816 2.816 0 0 1 0 3.978l-5.137 5.127a.937.937 0 0 1-.412.24l-3.784 1.048a.937.937 0 0 1-1.147-1.176l1.121-3.69a.937.937 0 0 1 .235-.391l5.147-5.136Zm-4.213 8.131 1.903-.527 3.453-3.446-1.326-1.326-3.473 3.465-.557 1.834Zm6.683-5.298.182-.181a.938.938 0 0 0-1.327-1.325l-.18.18 1.325 1.326ZM5.682 5.625h9.657a.937.937 0 1 1 0 1.875H5.682a.937.937 0 1 1 0-1.875Z" clip-rule="evenodd"/></svg>
